material/.icons/material/car-shift-pattern.svg

<svg xmlns="http://www.w3.org/2000/svg" viewBox="0 0 24 24"><path d="M8 5H4V2h4v3M4 22h4v-3H4v3M14 2h-4v3h4V2m-4 20h4v-3h-4v3m6-20v3h4V2h-4m1 9h-4V7h-2v4H7V7H5v10h2v-4h4v4h2v-4h6V7h-2v4z"/></svg>

<?xml version="1.0" encoding="UTF-8"?><!DOCTYPE svg PUBLIC "-//W3C//DTD SVG 1.1//EN" "http://www.w3.org/Graphics/SVG/1.1/DTD/svg11.dtd"><svg xmlns="http://www.w3.org/2000/svg" xmlns:xlink="http://www.w3.org/1999/xlink" version="1.1" id="mdi-car-shift-pattern" width="24" height="24" viewBox="0 0 24 24"><path d="M8 5H4V2H8V5M4 22H8V19H4V22M14 2H10V5H14V2M10 22H14V19H10V22M16 2V5H20V2H16M17 11H13V7H11V11H7V7H5V17H7V13H11V17H13V13H19V7H17V11Z" /></svg>
